frontend/public/svg/hand gestures/thumbs-up.svg

<svg width="153" height="144" viewBox="0 0 153 144" fill="none" xmlns="http://www.w3.org/2000/svg">
<g clip-path="url(#clip0)">
<path d="M6.51112 88.6069C7.05981 88.9803 7.61313 89.3465 8.19858 89.7345L8.71184 90.0751C4.81778 93.9593 2.42742 98.1001 1.40944 102.722C0.455775 107.054 1.70279 110.705 5.1164 113.582C5.56468 113.96 6.01885 114.329 6.48419 114.708L6.90754 115.053C4.32026 118.475 2.91694 121.913 2.61699 125.554C2.24288 130.109 3.82595 133.386 7.32158 135.293C9.89968 136.7 12.4338 138.009 15.1025 138.564C20.3929 139.649 25.7394 140.44 31.1172 140.936C38.6218 141.644 46.7577 142.226 55.9924 142.715C61.1361 142.987 67.1121 143.254 73.3256 143.254C74.2839 143.254 75.2467 143.248 76.2135 143.234C83.2593 143.134 89.5371 142.717 95.0648 138.604C95.6982 138.066 96.4897 137.75 97.32 137.705C98.1496 137.66 98.9714 137.887 99.6592 138.354C100.682 138.859 101.785 139.18 102.919 139.302C103.163 139.342 103.406 139.384 103.646 139.428C113.298 141.229 123.178 141.01 132.733 140.797C134.148 140.765 135.562 140.736 136.977 140.709C142.223 140.615 145.862 137.673 147.501 132.2C148.071 130.36 148.467 128.47 148.682 126.556L148.997 123.527C149.693 116.833 150.414 109.916 150.892 103.09C151.982 87.5311 152.341 71.5493 151.957 55.5891C151.881 52.4505 151.7 49.3913 151.419 46.4949C151.052 42.7295 149.24 39.9138 146.177 38.3511C143.646 37.0594 140.777 35.5944 137.758 34.9092C128.595 32.8273 119.157 33.334 110.829 33.7771C109.981 33.8223 109.105 33.8256 108.257 33.8282C105.435 33.8387 102.521 33.8499 99.6914 35.3424C96.8534 28.357 92.0844 23.0584 87.7769 18.7876C86.092 17.1174 84.3974 15.456 82.6942 13.8034C80.017 11.1925 77.2466 8.49295 74.5851 5.78293C70.1548 1.27783 64.4552 -0.245536 57.1607 1.12293C55.965 1.34671 54.8261 1.80722 53.8108 2.47741C52.7957 3.14759 51.9246 4.01393 51.249 5.02551C49.7949 7.20698 49.267 9.87664 49.7809 12.4474C50.0834 14.1323 50.5839 15.7755 51.2721 17.343C52.8552 20.7921 54.5727 24.1689 56.4918 27.91C56.7333 28.3806 56.9868 28.8447 57.2408 29.3107C58.187 30.8669 58.9018 32.5525 59.3627 34.3146C59.2472 34.3454 59.1396 34.3763 59.0385 34.4058C58.7815 34.4939 58.5145 34.5492 58.2437 34.5706C55.0276 34.6038 51.8114 34.6316 48.5954 34.6539C43.5882 34.6933 38.4111 34.7333 33.3198 34.8075C27.8982 34.8911 22.5136 35.7172 17.3164 37.2629C13.1163 38.4439 9.34625 40.8117 6.45856 44.0822C0.734635 50.6384 0.956573 58.0707 7.04936 63.9594C7.08237 64.0388 7.10629 64.1215 7.12082 64.2062C7.13264 64.2567 7.14518 64.3099 7.15896 64.367C4.17768 67.398 2.13861 71.2277 1.28861 75.3935C0.0468255 80.9599 1.80452 85.4026 6.51112 88.6069ZM17.7344 67.2536C19.9699 66.737 21.5078 65.2366 21.6535 63.431C21.8504 61.0144 19.3983 60.0732 17.934 59.5114C17.1463 59.2286 16.341 58.9973 15.5232 58.819C14.9214 58.6746 14.2992 58.5249 13.7092 58.3339C10.9355 57.4374 10.077 55.9055 10.7458 53.0465C11.2266 50.7901 12.4091 48.7438 14.1239 47.2005C17.8309 43.9234 21.5885 42.2694 25.9492 41.9944L26.3836 41.9668C35.7036 41.3807 45.3348 40.7736 54.8287 41.6616C57.4262 41.877 60.0382 41.8432 62.6293 41.5606C64.3955 41.3873 65.5545 40.8629 66.1734 39.9571C66.7642 39.0888 66.8423 37.9094 66.4039 36.3473C65.2305 32.3651 63.8411 28.4497 62.242 24.6185C61.4898 22.7532 60.6346 20.8964 59.8083 19.1007C58.7896 16.8895 57.7369 14.6021 56.8745 12.2951C56.1748 10.4252 56.1132 9.11778 56.6849 8.29933C57.271 7.45856 58.5836 7.04442 60.6885 7.07001C64.4952 7.09298 67.2952 8.21925 69.5103 10.6142C71.6388 12.9154 73.8599 15.2014 76.0081 17.4119C79.4007 20.9023 82.9081 24.5115 86.1235 28.2572C92.4815 35.6634 95.3779 43.2047 94.9841 51.3124C94.8043 55.4773 94.8548 59.6491 95.1357 63.8084C95.2466 67.0448 95.0911 70.2852 94.6717 73.4967C94.4676 75.4709 94.2569 77.5121 94.1781 79.535C93.8821 87.0947 93.7023 94.7843 93.5284 102.221C93.424 106.666 93.3203 111.111 93.1923 115.555L93.1864 115.739C93.0866 119.206 92.9836 122.791 92.5642 126.272C91.8573 132.137 89.7242 134.285 84.1099 134.784C79.7512 135.171 75.2815 135.216 70.9595 135.259C69.2983 135.275 67.6371 135.292 65.978 135.324C64.2059 135.361 62.4055 135.351 60.6616 135.342C59.9615 135.338 59.2598 135.335 58.5566 135.334L58.5495 135.222L58.2567 135.201C54.989 134.96 51.7203 134.726 48.4504 134.501C39.9987 133.907 31.2589 133.292 22.6832 132.491C19.2191 132.167 15.7457 130.954 12.8053 129.81C10.2869 128.829 9.76381 127.75 10.3716 124.788C10.7217 123.068 11.3136 121.405 12.1294 119.851C13.2248 117.796 14.6038 116.915 16.6214 117.009C18.1452 117.011 19.6395 116.59 20.938 115.792C21.9882 115.181 23.1303 113.862 23.1447 112.796C23.1591 111.73 22.0112 110.36 20.9716 109.795C19.435 109.049 17.7969 108.534 16.1101 108.265C13.5169 107.735 11.796 107.196 11.2348 106.146C10.7425 105.227 10.9926 103.821 12.157 100.961C13.9035 96.6772 16.2589 93.9914 19.5734 92.5088C20.5965 92.1412 21.4614 91.4317 22.0224 90.5004C22.5833 89.569 22.8062 88.473 22.6531 87.3966C22.4943 84.9878 20.6972 84.0492 18.9606 83.452C18.0758 83.1468 17.1596 82.9046 16.2735 82.6709C15.3474 82.4261 14.3891 82.1734 13.4807 81.8505C10.7038 80.866 10.0068 79.741 10.3737 76.844C11.0871 71.2244 13.358 68.2656 17.7377 67.2516L17.7344 67.2536ZM113.436 133.235C110.091 133.101 106.758 132.743 103.46 132.163C100.271 131.638 100.289 131.441 100.588 128.089C101.144 121.866 101.598 115.385 101.978 108.277L102.157 104.942C102.604 96.6719 103.067 88.1133 103.239 79.6905C103.406 71.5434 103.331 63.2565 103.26 55.2432C103.242 53.2926 103.226 51.3422 103.211 49.392C103.174 47.9141 103.064 46.439 102.879 44.9722C102.814 44.348 102.743 43.7074 102.682 43.0419C105.352 42.9651 108.022 42.8371 110.608 42.7137C118.627 42.3285 126.202 41.9649 133.908 43.0025C134.129 43.0327 134.35 43.0544 134.572 43.0754C134.915 43.1089 135.239 43.141 135.56 43.2014C142.666 44.5508 143.718 45.8268 143.596 52.9277L143.541 56.0781C143.25 73.0267 142.951 90.5522 142.402 107.78C142.209 113.868 141.466 120.049 140.747 126.027L140.529 127.843C139.996 132.306 139.109 133.18 134.945 133.329C127.766 133.584 120.676 133.43 113.44 133.235H113.436Z" fill="black"/>
<path d="M126.622 49.1437C122.618 47.2462 117.188 48.1789 113.71 51.3615C110.911 53.9212 110.068 57.1221 111.206 60.8725C112.789 66.0956 117.331 69.1968 123.667 69.3812C123.817 69.3858 123.964 69.3878 124.111 69.3878C126.777 69.3878 128.883 68.6658 130.374 67.2363C132.092 65.5909 132.987 63.0141 133.034 59.5795V59.5539C132.726 54.5185 130.566 51.0123 126.622 49.1437ZM126.753 59.9608C126.747 60.4204 126.647 60.874 126.458 61.2932C126.269 61.7124 125.996 62.0881 125.656 62.3971C125.106 62.8849 124.466 63.2584 123.771 63.4962C123.076 63.734 122.341 63.8311 121.609 63.782C119.656 63.7046 117.268 60.7491 117.203 58.3298C117.203 57.9167 117.285 57.5077 117.445 57.1266C117.604 56.7455 117.837 56.3997 118.131 56.1094C119.092 55.1619 120.383 54.6257 121.733 54.6143H121.826C123.064 54.6258 124.248 55.1269 125.119 56.0083C125.639 56.526 126.052 57.142 126.333 57.8205C126.613 58.499 126.756 59.2266 126.753 59.9608Z" fill="black"/>
</g>
<defs>
<clipPath id="clip0">
<rect width="151.614" height="143.082" fill="white" transform="translate(0.736206 0.633301)"/>
</clipPath>
</defs>
</svg>

<svg xmlns="http://www.w3.org/2000/svg" width="153" height="144" fill="none" viewBox="0 0 153 144"><g fill="#000" clip-path="url(#a)"><path d="M6.511 88.607c.549.373 1.102.74 1.688 1.127l.513.341C4.818 93.96 2.427 98.1 1.409 102.722c-.953 4.332.294 7.983 3.707 10.86.449.378.903.747 1.368 1.126l.424.345c-2.588 3.422-3.991 6.86-4.291 10.501-.374 4.555 1.209 7.832 4.705 9.739 2.578 1.407 5.112 2.716 7.78 3.271a147 147 0 0 0 16.015 2.372c7.505.708 15.64 1.29 24.875 1.779 5.144.272 11.12.539 17.334.539q1.436 0 2.888-.02c7.045-.1 13.323-.517 18.85-4.63a3.8 3.8 0 0 1 4.595-.25 9.7 9.7 0 0 0 3.26.948q.366.06.727.126c9.652 1.801 19.532 1.582 29.087 1.369q2.122-.048 4.244-.088c5.246-.094 8.885-3.036 10.524-8.509.57-1.84.966-3.73 1.181-5.644l.315-3.029c.696-6.694 1.417-13.611 1.895-20.437 1.09-15.559 1.449-31.54 1.065-47.5a126 126 0 0 0-.538-9.095c-.367-3.765-2.179-6.581-5.242-8.144-2.531-1.292-5.4-2.757-8.419-3.442-9.163-2.082-18.601-1.575-26.929-1.132a52 52 0 0 1-2.572.051c-2.822.01-5.736.022-8.566 1.514-2.838-6.985-7.607-12.284-11.914-16.554a666 666 0 0 0-5.083-4.985c-2.677-2.61-5.447-5.31-8.109-8.02-4.43-4.505-10.13-6.029-17.424-4.66a9.13 9.13 0 0 0-5.912 3.903 9.9 9.9 0 0 0-1.468 7.421 21.7 21.7 0 0 0 1.491 4.896c1.583 3.45 3.3 6.826 5.22 10.567.241.47.495.935.749 1.4a18.8 18.8 0 0 1 2.122 5.005q-.173.046-.325.09a3.2 3.2 0 0 1-.794.166q-4.824.049-9.649.083c-5.007.04-10.184.08-15.275.153a59.4 59.4 0 0 0-16.004 2.456 22.67 22.67 0 0 0-10.857 6.82C.735 50.637.957 58.07 7.049 63.958q.05.12.072.247l.038.161a22 22 0 0 0-5.87 11.026c-1.242 5.567.516 10.01 5.222 13.214m11.223-21.353c2.236-.517 3.774-2.017 3.92-3.823.196-2.417-2.256-3.358-3.72-3.92a19 19 0 0 0-2.41-.692 25 25 0 0 1-1.815-.485c-2.774-.897-3.632-2.428-2.963-5.288a10.93 10.93 0 0 1 3.378-5.846c3.707-3.277 7.464-4.93 11.825-5.206l.435-.027c9.32-.586 18.95-1.193 28.445-.305a41 41 0 0 0 7.8-.101c1.767-.174 2.926-.698 3.544-1.604.591-.868.67-2.048.23-3.61a114 114 0 0 0-4.161-11.728c-.752-1.866-1.607-3.723-2.434-5.518-1.018-2.211-2.071-4.499-2.934-6.806-.7-1.87-.76-3.177-.19-3.996.587-.84 1.9-1.255 4.005-1.229 3.806.023 6.606 1.15 8.821 3.544 2.129 2.301 4.35 4.587 6.498 6.798 3.393 3.49 6.9 7.1 10.116 10.845 6.358 7.406 9.254 14.948 8.86 23.055-.18 4.165-.13 8.337.152 12.496a59 59 0 0 1-.464 9.689c-.204 1.974-.415 4.015-.494 6.038-.296 7.56-.476 15.25-.65 22.686-.104 4.445-.208 8.89-.336 13.334l-.006.184c-.1 3.467-.202 7.052-.622 10.533-.707 5.865-2.84 8.013-8.454 8.512-4.359.387-8.829.432-13.15.475-1.662.016-3.323.033-4.982.065-1.772.037-3.572.027-5.316.018q-1.05-.006-2.105-.008l-.008-.112-.292-.021a1999 1999 0 0 0-9.807-.7c-8.451-.594-17.191-1.209-25.767-2.01-3.464-.324-6.937-1.537-9.878-2.681-2.518-.981-3.041-2.06-2.433-5.022a18.6 18.6 0 0 1 1.757-4.937c1.096-2.055 2.475-2.936 4.492-2.842a8.2 8.2 0 0 0 4.317-1.217c1.05-.611 2.192-1.93 2.207-2.996s-1.134-2.436-2.173-3.001a17.4 17.4 0 0 0-4.862-1.53c-2.593-.53-4.314-1.069-4.875-2.119-.492-.919-.242-2.325.922-5.185 1.746-4.284 4.102-6.97 7.416-8.452a4.724 4.724 0 0 0 3.08-5.112c-.159-2.41-1.956-3.348-3.692-3.945-.885-.305-1.801-.547-2.687-.781-.927-.245-1.885-.498-2.793-.82-2.777-.985-3.474-2.11-3.107-5.007.713-5.62 2.984-8.578 7.364-9.592zm95.702 65.981a75 75 0 0 1-9.976-1.072c-3.189-.525-3.171-.722-2.872-4.074a553 553 0 0 0 1.39-19.812l.179-3.335c.447-8.27.91-16.829 1.082-25.251.167-8.148.092-16.434.021-24.448q-.027-2.925-.049-5.851a44 44 0 0 0-.332-4.42c-.065-.624-.136-1.265-.197-1.93 2.67-.077 5.34-.205 7.926-.328 8.019-.386 15.594-.75 23.3.288q.331.043.664.073c.343.034.667.066.988.126 7.106 1.35 8.158 2.626 8.036 9.727l-.055 3.15c-.291 16.949-.59 34.474-1.139 51.702-.193 6.088-.936 12.269-1.655 18.247l-.218 1.816c-.533 4.463-1.42 5.337-5.584 5.486-7.179.255-14.269.101-21.505-.094z"/><path d="M126.622 49.144c-4.004-1.898-9.434-.965-12.912 2.218-2.799 2.56-3.642 5.76-2.504 9.51 1.583 5.224 6.125 8.325 12.461 8.51q.224.006.444.006c2.666 0 4.772-.722 6.263-2.152 1.718-1.645 2.613-4.222 2.66-7.657v-.025c-.308-5.035-2.468-8.542-6.412-10.41m.131 10.817a3.35 3.35 0 0 1-1.097 2.436 5.55 5.55 0 0 1-4.047 1.385c-1.953-.077-4.341-3.033-4.406-5.452a3.12 3.12 0 0 1 .928-2.22 5.2 5.2 0 0 1 3.602-1.496h.093a4.7 4.7 0 0 1 3.293 1.394 5.55 5.55 0 0 1 1.634 3.953"/></g><defs><clipPath id="a"><path fill="#fff" d="M.736.633H152.35v143.082H.736z"/></clipPath></defs></svg>
